packages/Snapp/src/AddUserIcon/index.svg

<?xml version="1.0" encoding="UTF-8"?>
<svg width="24px" height="24px" viewBox="0 0 24 24" version="1.1" xmlns="http://www.w3.org/2000/svg" xmlns:xlink="http://www.w3.org/1999/xlink">
    <title>Icons/24/Add user</title>
    <g id="Icons/24/Add-user" stroke="none" stroke-width="1" fill="none" fill-rule="evenodd">
        <rect id="Container" fill-opacity="0" fill="#D8D8D8" fill-rule="nonzero" x="0" y="0" width="24" height="24"></rect>
        <path d="M17.6666667,13.9467762 C19.9873783,13.9467762 21.8820021,15.7359927 21.9946968,17.9846583 L22,18.1967762 L22,19.2592762 C22,19.8460787 21.5149751,20.3217762 20.9166667,20.3217762 C20.3610945,20.3217762 19.9032006,19.9116085 19.8406217,19.3831861 L19.8333333,19.2592762 L19.8333333,18.1967762 C19.8333333,17.0765168 18.9494657,16.1587257 17.8283675,16.0776048 L17.6666667,16.0717762 L13.3333333,16.0717762 C12.1911081,16.0717762 11.2553211,16.9386463 11.1726095,18.0381849 L11.1666667,18.1967762 L11.1666667,19.2592762 C11.1666667,19.8460787 10.6816418,20.3217762 10.0833333,20.3217762 C9.52776117,20.3217762 9.06986724,19.9116085 9.00728838,19.3831861 L9,19.2592762 L9,18.1967762 C9,15.9206936 10.8242992,14.0625049 13.1170563,13.9519774 L13.3333333,13.9467762 L17.6666667,13.9467762 Z M6.0484181,8 C6.60070285,8 7.0484181,8.44771525 7.0484181,9 L7.0484181,10.9990479 L9.08631064,10.9990479 C9.63859539,10.9990479 10.0863106,11.4467631 10.0863106,11.9990479 C10.0863106,12.5513326 9.63859539,12.9990479 9.08631064,12.9990479 L7.0484181,12.9990479 L7.0484181,15.0784579 C7.0484181,15.6307427 6.60070285,16.0784579 6.0484181,16.0784579 C5.49613335,16.0784579 5.0484181,15.6307427 5.0484181,15.0784579 L5.0484181,12.9990479 L3,12.9990479 C2.44771525,12.9990479 2,12.5513326 2,11.9990479 C2,11.4467631 2.44771525,10.9990479 3,10.9990479 L5.0484181,10.9990479 L5.0484181,9 C5.0484181,8.44771525 5.49613335,8 6.0484181,8 Z M15.65,3.32177618 C18.2181241,3.32177618 20.3,5.40295253 20.3,7.97021368 C20.3,10.5374748 18.2181241,12.6186512 15.65,12.6186512 C13.0818759,12.6186512 11,10.5374748 11,7.97021368 C11,5.40295253 13.0818759,3.32177618 15.65,3.32177618 Z M15.65,5.44677618 C14.2558755,5.44677618 13.1257143,6.57655763 13.1257143,7.97021368 C13.1257143,9.36386972 14.2558755,10.4936512 15.65,10.4936512 C17.0441245,10.4936512 18.1742857,9.36386972 18.1742857,7.97021368 C18.1742857,6.57655763 17.0441245,5.44677618 15.65,5.44677618 Z" id="Combined-Shape" fill="#404040" fill-rule="nonzero"></path>
    </g>
</svg>

<svg viewBox="0 0 24 24" xmlns="http://www.w3.org/2000/svg" fill="currentColor" focusable="false">
  <g fill-rule="evenodd">
    <path d="M0 0h24v24H0z"/>
    <path d="M17.667 13.947c2.32 0 4.215 1.789 4.328 4.038l.005.212v1.062c0 .587-.485 1.063-1.083 1.063-.556 0-1.014-.41-1.076-.939l-.008-.124v-1.062c0-1.12-.884-2.038-2.005-2.12l-.161-.005h-4.334c-1.142 0-2.078.867-2.16 1.966l-.006.159v1.062c0 .587-.485 1.063-1.084 1.063-.555 0-1.013-.41-1.076-.939L9 19.26v-1.062c0-2.276 1.824-4.134 4.117-4.245l.216-.005h4.334zM6.048 8a1 1 0 011 1v1.999h2.038a1 1 0 110 2H7.048v2.08a1 1 0 11-2 0v-2.08H3a1 1 0 010-2h2.048V9a1 1 0 011-1zm9.602-4.678A4.65 4.65 0 1111 7.97a4.65 4.65 0 014.65-4.648zm0 2.125a2.524 2.524 0 100 5.047 2.524 2.524 0 000-5.047z" fill-rule="nonzero"/>
  </g>
</svg>
